X:150
T: Colonel Rogers
S: "Ceol Rince na hEireann" 1/78
Z: B.Black
L: 1/8
M: 4/4
R: reel
K: G
G2 dB cAFA|GABc dBcA|G2 dB cAFA|GB (3AGF G2 DG|
GABd cAFA|GABc defg|afge fdcA|GB (3AGF G2||
ag|fdge fdcA|dggf gbag|fdge fdcA|GBAF G2 ag|
fdge fdcA|dggf g2 ag|f2 eg fdcA|GB (3AGF G3 z||
